X:1
T:John Stainer
T:Etiam Pro Nobis
%%score { ( 1 2 ) | ( 3 4 5 ) }
L:1/8
Q:1/4=184
M:3/2
K:Db
V:1 treble 
V:2 treble 
V:3 bass 
V:4 bass 
V:5 bass 
V:1
"^Presto" F4 D4 E4 | F4 A4 G4 | F8 E4 | D12 | D4 G4 F4 | B4 A4 d4 | c8 B4 | A12 | F4 A4 d4 | %9
 d4 c4 c4 | f4 e4 d4 | c12 | d4 c4 B4 | A6 B2 c4 | A8 =G4 | F12 | A4 A4 B4 | =G4 F4 E4 | c4 c4 d4 | %19
 (d4 c8) | c4 e4 d4 | c4 c4 B4 | (A4 F4) =G4 | A12 |"^Unison" F4 E4 D4 | D4 G4 B4 | B4 =G4 E4 | %27
 c8 A4 | d4 c4 e4 | d4 c4 B4 |"^Harnony" (A4 G4) E4 | D12 | D8 D8 |] %33
V:2
 D4 D4 C4 | D4 D4 D4 | C8 C4 | D12 | D4 B,4 C4 | D4 D4 A4 | (A4 F4) =G4 | A12 | F4 F4 A4 | %9
 B4 =G4 =E4 | c4 B4 A4 | =G12 | =G4 G4 G4 | F6 =G2 A4 | F8 =E4 | F12 | C4 D4 =D4 | E4 =D4 _D4 | %18
 C4 =E4 F4 | =G12 | F4 E4 =E4 | F4 G4 F4 | E8 D4 | C12 | =B,12 | B,4 D4 =D4 | E8 D4 | [CE]8 E4 | %28
 F8 [F=A]4 | [FB]4 E4 D4 | (D4 B,4) C4 | D12 | B,8 A,8 |] %33
V:3
 A,4 A,4 G,4 | A,4 F,4 G,4 | A,8 G,4 | F,12 | F,4 D4 C4 | B,4 D4 D4 | E8 D4 | C12 | z4 z4 z4 | %9
 z6 z2 z4 | C4 z4 z4 | z12 | z4 z4 z4 | z4 z4 z4 | C4 z4 z4 | z12 | A,4 z4 z4 | z4 z4 z4 | z8 z4 | %19
 z12 | A,4 z4 z4 | z8 z4 | z4 z4 z4 | z8 z4 | z4 z4 z4 | z4 z4 z4 | z4 z4 z4 | z12 | z8 z4 | %29
 z4 z8 | z12 | z12 | z16 |] %33
V:4
 A,4 A,4 G,4 | A,4 F,4 G,4 | A,8 G,4 | F,12 | F,4 D4 C4 | B,4 D4 D4 | E8 D4 | C12 | C4 A,4 A,4 | %9
 =G,4 =E4 C4 | C4 C4 C4 | C12 | B,4 C4 C4 | C6 B,2 A,4 | (C4 D4) B,4 | A,12 | A,4 A,4 A,4 | %17
 B,4 A,4 B,4 | C4 B,4 A,4 | B,12 | A,4 B,4 B,4 | C4 E4 D4 | C8 B,4 | A,12 | A,4 G,4 F,4 | B,8 A,4 | %26
 =G,4 B,4 G,4 | A,8 G,4 | A,4 =A,4 C4 | B,4 =A,4 B,4 | (F,4 E,4) G,4 | F,12 | G,8 F,8 |] %33
V:5
 D,4 F,4 E,4 | D,4 C,4 B,,4 | A,,8 =A,,4 | B,,12 | B,,4 B,4 A,4 | G,4 F,4 ^F,4 | E,8 E,4 | A,12 | %8
 A,4 F,4 F,4 | =E,4 =G,4 B,4 | A,4 =G,4 F,4 | =E,12 | =E,4 E,4 E,4 | F,6 F,2 A,,4 | %14
 (A,,4 B,,4) C,4 | F,12 | F,4 F,4 =E,4 | E,4 F,4 =G,4 | A,4 =G,4 F,4 | =E,12 | F,4 =G,4 G,4 | %21
 A,4 A,4 D,4 | E,8 E,4 | A,,12 | D,12 | G,8 =E,4 | E,12 | A,8 G,4 | F,8 F,4 | B,4 F,4 G,4 | %30
 A,,8 A,,4 | D,12 | G,,8 D,8 |] %33

